X:86
T:Happy Night, The
M:6/8
L:1/8
B:Thompson's Compleat Collection of 200 Favourite Country Dances, vol. 2 (London, 1765)
Z:Transcribed and edited by Flynn Titford-Mock, 2007
Z:abc's:AK/Fiddler's Companion
K:D
d3 dAd | e3 eAe | fga afd | cde ecA | d3 dAd | e3 eAe | f^ga Bag | a3 A3 :|
|: a3 aAa | aba agf | g3 gAg | gag gfe | (3f/g/a/ a2 (3e/f/g/ g2 | (3f/g/a/ a2 (3e/f/g/ g2 | faf gec | d3 D3 :|

